pic/food/olive.svg

<?xml version="1.0" encoding="utf-8"?>
<!-- Generator: Adobe Illustrator 12.0.1, SVG Export Plug-In . SVG Version: 6.00 Build 51448)  -->
<!DOCTYPE svg PUBLIC "-//W3C//DTD SVG 1.1//EN" "http://www.w3.org/Graphics/SVG/1.1/DTD/svg11.dtd" [
	<!ENTITY ns_svg "http://www.w3.org/2000/svg">
	<!ENTITY ns_xlink "http://www.w3.org/1999/xlink">
]>
<svg  version="1.1" id="Layer_1" xmlns="&ns_svg;" xmlns:xlink="&ns_xlink;" width="187.086" height="231.379"
	 viewBox="0 0 187.086 231.379" overflow="visible" enable-background="new 0 0 187.086 231.379" xml:space="preserve">
<g>
	<g>
		<path stroke="#6A737B" stroke-width="2.7648" d="M156.101,26.232c-4.277-6.068-8.332-12.092-17.762-16.425
			c-11.322-5.206-26.955-8.424-44.22-8.424c-19.224,0-36.416,3.993-47.897,10.272c-6.341,3.468-9.491,7.852-13.157,12.213
			C13.663,45.41,1.382,77.113,1.382,112.492c0,64.898,41.262,117.506,92.162,117.506c50.899,0,92.161-52.607,92.161-117.506
			C185.705,78.391,174.3,47.698,156.101,26.232z"/>
		<ellipse fill="#A19789" stroke="#6A737B" stroke-width="2.8332" cx="93.95" cy="32.887" rx="48.997" ry="21.48"/>
	</g>
	<g>
		<path fill="#949383" d="M33.835,32.917C18.022,53.196,8.265,80.912,8.265,111.494c0,62.16,40.241,112.547,89.883,112.547
			c3.908,0,7.748-0.346,11.527-0.955c-48.796-1.215-88.064-51.09-88.064-112.486c0-25.699,6.889-49.374,18.473-68.313L33.835,32.917
			z"/>
	</g>
</g>
</svg>

<?xml version="1.0" encoding="UTF-8" standalone="no"?>
<!-- Generator: Adobe Illustrator 12.0.1, SVG Export Plug-In . SVG Version: 6.00 Build 51448)  -->

<svg
   xmlns:dc="http://purl.org/dc/elements/1.1/"
   xmlns:cc="http://creativecommons.org/ns#"
   xmlns:rdf="http://www.w3.org/1999/02/22-rdf-syntax-ns#"
   xmlns:svg="http://www.w3.org/2000/svg"
   xmlns="http://www.w3.org/2000/svg"
   xmlns:sodipodi="http://sodipodi.sourceforge.net/DTD/sodipodi-0.dtd"
   xmlns:inkscape="http://www.inkscape.org/namespaces/inkscape"
   version="1.1"
   id="Layer_1"
   width="128"
   height="128"
   viewBox="0 0 128.00001 128"
   overflow="visible"
   enable-background="new 0 0 187.086 231.379"
   xml:space="preserve"
   sodipodi:docname="olive.svg"
   inkscape:version="0.92.2 (5c3e80d, 2017-08-06)"
   style="overflow:visible"><metadata
     id="metadata19"><rdf:RDF><cc:Work
         rdf:about=""><dc:format>image/svg+xml</dc:format><dc:type
           rdf:resource="http://purl.org/dc/dcmitype/StillImage" /><dc:title></dc:title><cc:license
           rdf:resource="http://creativecommons.org/publicdomain/zero/1.0/" /></cc:Work><cc:License
         rdf:about="http://creativecommons.org/publicdomain/zero/1.0/"><cc:permits
           rdf:resource="http://creativecommons.org/ns#Reproduction" /><cc:permits
           rdf:resource="http://creativecommons.org/ns#Distribution" /><cc:permits
           rdf:resource="http://creativecommons.org/ns#DerivativeWorks" /></cc:License></rdf:RDF></metadata><defs
     id="defs17" /><sodipodi:namedview
     pagecolor="#ffffff"
     bordercolor="#666666"
     borderopacity="1"
     objecttolerance="10"
     gridtolerance="10"
     guidetolerance="10"
     inkscape:pageopacity="0"
     inkscape:pageshadow="2"
     inkscape:window-width="1920"
     inkscape:window-height="1025"
     id="namedview15"
     showgrid="false"
     inkscape:zoom="4.0798863"
     inkscape:cx="12.708248"
     inkscape:cy="39.512877"
     inkscape:window-x="-8"
     inkscape:window-y="-8"
     inkscape:window-maximized="1"
     inkscape:current-layer="Layer_1"
     fit-margin-top="0"
     fit-margin-left="0"
     fit-margin-right="0"
     fit-margin-bottom="0" /><g
     id="g12"
     transform="matrix(0.42108964,0.42108964,-0.42108964,0.42108964,71.688341,-22.627428)"><g
       id="g6"><path
         d="M 156.101,26.232 C 151.824,20.164 147.769,14.14 138.339,9.807 127.017,4.601 111.384,1.383 94.119,1.383 74.895,1.383 57.703,5.376 46.222,11.655 39.881,15.123 36.731,19.507 33.065,23.868 13.663,45.41 1.382,77.113 1.382,112.492 c 0,64.898 41.262,117.506 92.162,117.506 50.899,0 92.161,-52.607 92.161,-117.506 0,-34.101 -11.405,-64.794 -29.604,-86.26 z"
         id="path2"
         inkscape:connector-curvature="0"
         style="stroke:#6a737b;stroke-width:2.76480007" /><ellipse
         cx="93.949997"
         cy="32.887001"
         rx="48.997002"
         ry="21.48"
         id="ellipse4"
         style="fill:#a19789;stroke:#6a737b;stroke-width:2.83319998" /></g><g
       id="g10"><path
         d="m 33.835,32.917 c -15.813,20.279 -25.57,47.995 -25.57,78.577 0,62.16 40.241,112.547 89.883,112.547 3.908,0 7.748,-0.346 11.527,-0.955 C 60.879,221.871 21.611,171.996 21.611,110.6 21.611,84.901 28.5,61.226 40.084,42.287 Z"
         id="path8"
         inkscape:connector-curvature="0"
         style="fill:#949383" /></g></g></svg>
